X: 6309
T: Carrick Tinker, The
R: waltz
M: 3/4
K: Adorian
B2|:A4B2|c2B2A2|B2A2G2|A2G2E2|A4B2|c4e2|d2B2G2|G4E2|
A4B2|c2B2A2|B2A2G2|A4ef|g2b2a2|g4e2|d2B2G2|G4B2|
e4de|e2d2B2|e4A2|A3Bcd|e2d2e2|e2d2B2|d2B2G2|G3ABd|
e4de|e2d2B2|e4A2|A4ef|g2b2a2|g4e2|d2B2G2|G4B2|
c4A2|B4A2|e4A2|A4B2|c4A2|B4A2|d2B2G2|G2B2d2|
c2B2A2|B2A2G2|A2G2E2|G4AB|c2e2d2|c4A2|1 B2A2G2|G4B2:|2 B2A2G2|A6||

